assets/Reminder ribbon/Flat/reminder_ribbon_flat.svg

<svg width="32" height="32" viewBox="0 0 32 32" fill="none" xmlns="http://www.w3.org/2000/svg">
<path d="M15.8894 7.36C12.4194 7.36 9.46945 9.57 8.36945 12.66C8.06945 11.82 7.90942 10.92 7.90942 9.98C7.90942 5.57 11.4794 2 15.8894 2C20.2994 2 23.8694 5.57 23.8694 9.98C23.8694 10.92 23.7094 11.82 23.4094 12.66C22.3094 9.57 19.3594 7.36 15.8894 7.36Z" fill="#FFB02E"/>
<path d="M9.6495 4.81001C6.7995 7.65001 6.79949 12.26 9.63949 15.11L24.2695 29.74C24.6295 30.1 25.2095 30.08 25.5395 29.7L29.5595 25.16C29.8695 24.81 29.8495 24.27 29.5095 23.95L12.7895 7.96002C12.7795 7.95002 12.7695 7.94002 12.7495 7.93002C11.4195 6.60002 11.4195 4.43002 12.7495 3.10002C13.2795 2.57002 13.9395 2.25001 14.6195 2.14001C12.6595 2.39001 10.8995 3.37001 9.6495 4.81001Z" fill="#F9C23C"/>
<path d="M22.1295 4.75998C24.9795 7.59998 24.9795 12.21 22.1395 15.06L7.50946 29.69C7.14946 30.05 6.56947 30.03 6.23947 29.65L2.21945 25.11C1.90945 24.76 1.92947 24.22 2.26947 23.9L18.9895 7.90997C18.9995 7.89997 19.0095 7.88997 19.0295 7.87997C20.3595 6.54997 20.3595 4.37997 19.0295 3.04997C18.4995 2.51997 17.8395 2.19997 17.1595 2.08997C19.1295 2.33997 20.8795 3.32998 22.1295 4.75998Z" fill="#FCD53F"/>
</svg>

<svg xmlns="http://www.w3.org/2000/svg" width="32" height="32" fill="none"><path fill="#FFB02E" d="M15.89 7.36a7.98 7.98 0 0 0-7.52 5.3c-.3-.84-.46-1.74-.46-2.68C7.91 5.57 11.48 2 15.89 2s7.98 3.57 7.98 7.98c0 .94-.16 1.84-.46 2.68a7.98 7.98 0 0 0-7.52-5.3Z"/><path fill="#F9C23C" d="M9.65 4.81c-2.85 2.84-2.85 7.45-.01 10.3l14.63 14.63c.36.36.94.34 1.27-.04l4.02-4.54c.31-.35.29-.89-.05-1.21L12.79 7.96c-.01-.01-.02-.02-.04-.03a3.422 3.422 0 0 1 1.87-5.79 7.923 7.923 0 0 0-4.97 2.67Z"/><path fill="#FCD53F" d="M22.13 4.76c2.85 2.84 2.85 7.45.01 10.3L7.51 29.69c-.36.36-.94.34-1.27-.04l-4.02-4.54a.873.873 0 0 1 .05-1.21L18.99 7.91c.01-.01.02-.02.04-.03a3.422 3.422 0 0 0-1.87-5.79c1.97.25 3.72 1.24 4.97 2.67Z"/></svg>
